src/images/stand-for-files.svg

<?xml version="1.0" encoding="UTF-8" standalone="no"?>
<svg width="130px" height="140px" viewBox="0 0 130 140" version="1.1" xmlns="http://www.w3.org/2000/svg" xmlns:xlink="http://www.w3.org/1999/xlink" xmlns:sketch="http://www.bohemiancoding.com/sketch/ns">
    <!-- Generator: Sketch 3.4.2 (15855) - http://www.bohemiancoding.com/sketch -->
    <title>stand-for-files</title>
    <desc>Created with Sketch.</desc>
    <defs></defs>
    <g id="ICONS" stroke="none" stroke-width="1" fill="none" fill-rule="evenodd" sketch:type="MSPage">
        <g id="Artboard-3" sketch:type="MSArtboardGroup" transform="translate(-995.000000, -355.000000)">
            <g id="files-sync" sketch:type="MSLayerGroup" transform="translate(1006.000000, 355.000000)">
                <path d="M28,43 L28,15.9955469 C28,9.92403384 32.9245686,5 38.9942639,5 L80.9943848,5 L81.4108216,5 L81.7041681,5.29557991 L107.709783,31.4991932 L108,31.7916195 L108,32.2036133 L108,100.008587 C108,106.079891 103.0776,111 97.0023133,111 L56,111 L56,124.002901 C56,130.076519 51.0756917,135 45.0011202,135 L10.9988798,135 C4.92527854,135 0,130.074699 0,124.002901 L0,53.9970993 C0,47.923481 4.92430829,43 10.9988798,43 L28,43 Z" id="Shape" fill="#05486B" sketch:type="MSShapeGroup"></path>
                <g id="files" transform="translate(29.000000, 6.000000)" sketch:type="MSShapeGroup">
                    <path d="M1,11.0008878 C1,5.47754997 5.48071834,1 10.9988138,1 L51.9943848,1 L77,26.2036133 L77,92.9996089 C77,98.5226724 72.5295897,103 67.0057357,103 L10.9942643,103 C5.47458455,103 1,98.5186427 1,92.9991122 L1,11.0008878 Z" id="Rectangle-4" fill="#FFFFFF"></path>
                    <path d="M2,9.99554691 L2,9.99554691 L2,94.0044531 C2,98.4241728 5.57817737,102 9.99768668,102 L68.0023133,102 C72.4210579,102 76,98.422724 76,94.0085874 L76,26.2036133 L76.5804334,27.6124535 L50.5748182,1.40884017 L51.9943848,2 L9.99426393,2 C5.5813499,2 2,5.58096102 2,9.99554691 L2,9.99554691 Z M0,9.99554691 C0,4.47515878 4.47801326,0 9.99426393,0 L51.9943848,0 L78,26.2036133 L78,94.0085874 C78,99.5266922 73.5262292,104 68.0023133,104 L9.99768668,104 C4.47611679,104 0,99.53125 0,94.0044531 L0,9.99554691 L0,9.99554691 Z" id="Shape" fill="#05486B"></path>
                    <g id="picutre" transform="translate(10.000000, 10.000000)">
                        <path d="M0,2.00492334 C0,0.897634756 0.898310232,0 2.00629412,0 L46.0035087,0 L58,12 L58,41.9982567 C58,43.103789 57.1121679,44 56.0035087,44 L1.99649128,44 C0.893859594,44 0,43.1011449 0,41.9950767 L0,2.00492334 Z" id="Rectangle-6" fill="#9169F3"></path>
                        <path d="M0,2.00492334 C0,0.897634756 0.898310232,0 2.00629412,0 L46.0035087,0 L58,12 L58,41.9982567 C58,43.103789 57.1121679,44 56.0035087,44 L1.99649128,44 C0.893859594,44 0,43.1011449 0,41.9950767 L0,2.00492334 L0,2.00492334 Z M2,41.9950767 C2,41.9990666 56.0035087,42 56.0035087,42 C56.0034003,42 56,13 56,13 L45.0035087,2 L2.00629412,2 C2.00254301,2 2,41.9950767 2,41.9950767 Z" id="Shape" fill="#05486B"></path>
                    </g>
                    <path d="M47.5000001,12 L56,12 L59,28 L50.8634744,28 C47.0728822,28 44.6542175,25.0092917 45.4640356,21.3072662 L47.5000001,12 Z" id="Rectangle-5" fill="#6C46DC"></path>
                    <path d="M50,2 L50,10 L48,10 L50,2 Z" id="Rectangle-109" fill="#E9E9EB"></path>
                    <path d="M51,0 L78,27 L60.9962599,27 C55.475478,27 51,22.5263541 51,17.0037401 L51,0 Z" id="Rectangle-5" fill="#E9E9EB"></path>
                    <path d="M50,0 L52,0 L78,26 L78,28 L59.9900582,28 C54.4727014,28 50,23.5323558 50,18.0099418 L50,0 L50,0 Z M52,18.0099418 C52,22.4258831 55.5753671,26 59.9900582,26 L75.2520462,26.0804733 L52.0612503,2.88967743 L52,18.0099418 Z" id="Shape" fill="#05486B"></path>
                </g>
                <g id="phone" transform="translate(1.000000, 0.000000)" sketch:type="MSShapeGroup">
                    <rect id="Rectangle-14" fill="#E9E9EB" x="1" y="45" width="52" height="88" rx="10"></rect>
                    <path d="M0,123.219971 L0,55 L6,46 L12,46 C12,46 6,48 6,54 L6,123 C6,131 12,132 12,132 L6,132 L0,123.219971 Z" id="Rectangle-74" fill="#D3D3D8"></path>
                    <path d="M2,53.9970993 L2,53.9970993 L2,124.002901 C2,128.417848 5.58213589,132 9.99887985,132 L44.0011202,132 C48.4189503,132 52,128.419552 52,124.002901 L52,53.9970993 C52,49.5821524 48.4178641,46 44.0011202,46 L9.99887985,46 C5.58104972,46 2,49.5804481 2,53.9970993 L2,53.9970993 Z M0,53.9970993 C0,48.4758538 4.47650502,44 9.99887985,44 L44.0011202,44 C49.523349,44 54,48.4784983 54,53.9970993 L54,124.002901 C54,129.524146 49.523495,134 44.0011202,134 L9.99887985,134 C4.47665099,134 0,129.521502 0,124.002901 L0,53.9970993 L0,53.9970993 Z" id="Shape" fill="#05486B"></path>
                    <rect id="Rectangle-96" fill="#B46BD7" x="2" y="55" width="50" height="62"></rect>
                    <rect id="Rectangle-76" fill="#9851BB" x="2" y="56" width="4" height="60"></rect>
                    <path d="M1,54 L53,54 L53,56 L1,56 L1,54 Z M1,116 L53,116 L53,118 L1,118 L1,116 Z M19,50 C19,49.4477153 19.4446309,49 20.0008717,49 L33.9991283,49 C34.5518945,49 35,49.4438648 35,50 C35,50.5522847 34.5553691,51 33.9991283,51 L20.0008717,51 C19.4481055,51 19,50.5561352 19,50 Z M27,128 C28.6568542,128 30,126.656854 30,125 C30,123.343146 28.6568542,122 27,122 C25.3431458,122 24,123.343146 24,125 C24,126.656854 25.3431458,128 27,128 Z M27,130 L27,130 C24.2385763,130 22,127.761424 22,125 C22,122.238576 24.2385763,120 27,120 C29.7614237,120 32,122.238576 32,125 C32,127.761424 29.7614237,130 27,130 L27,130 Z M52,67 C52,66.4477153 52.4498156,66 53.0016723,66 L94.9983277,66 C95.551536,66 96,66.4438648 96,67 C96,67.5522847 95.5501844,68 94.9983277,68 L53.0016723,68 C52.448464,68 52,67.5561352 52,67 Z M52,74 C52,73.4477153 52.4492188,73 53.0087752,73 L90.9912248,73 C91.548356,73 92,73.4438648 92,74 C92,74.5522847 91.5507812,75 90.9912248,75 L53.0087752,75 C52.451644,75 52,74.5561352 52,74 Z M52,81 C52,80.4477153 52.4498156,80 53.0016723,80 L94.9983277,80 C95.551536,80 96,80.4438648 96,81 C96,81.5522847 95.5501844,82 94.9983277,82 L53.0016723,82 C52.448464,82 52,81.5561352 52,81 Z M52,88 C52,87.4477153 52.4498156,87 53.0016723,87 L94.9983277,87 C95.551536,87 96,87.4438648 96,88 C96,88.5522847 95.5501844,89 94.9983277,89 L53.0016723,89 C52.448464,89 52,88.5561352 52,88 Z M52,95 C52,94.4477153 52.4547089,94 52.9999602,94 L68.0000398,94 C68.5523026,94 69,94.4438648 69,95 C69,95.5522847 68.5452911,96 68.0000398,96 L52.9999602,96 C52.4476974,96 52,95.5561352 52,95 Z M54,12 L54,20 C54,20.1146278 53.98685,20.3447514 53.9462721,20.6490863 C53.8783416,21.1585649 53.7565424,21.6660615 53.5715233,22.1286093 C53.086305,23.341655 52.296291,24 51,24 C49.703709,24 48.913695,23.341655 48.4284767,22.1286093 C48.2434576,21.6660615 48.1216584,21.1585649 48.0537279,20.6490863 C48.0131499,20.3447514 48,20.1146278 48,20 L48,7 C48,6.85584103 48.0168467,6.57281652 48.0686173,6.20006837 C48.1552756,5.57612825 48.3107692,4.95415388 48.5480769,4.38461538 C49.1852165,2.85548046 50.2545671,2 52,2 C53.7946737,2 54.8631121,2.71229226 55.4805728,3.9472136 C55.7055134,4.39709468 55.8531704,4.88928473 55.9354811,5.38314899 C55.9843258,5.67621732 56,5.89565614 56,6 L58,6 C58,5.23361275 57.8200798,4.15409166 57.2694272,3.0527864 C56.3243879,1.16270774 54.5803263,-6.66133815e-16 52,0 C49.3704329,6.66133815e-16 47.6272835,1.39451954 46.7019231,3.61538462 C46.1728426,4.88517772 46,6.12964455 46,7 L46,20 C46,20.741003 46.1403159,21.7933721 46.5715233,22.8713907 C47.3363051,24.783345 48.796291,26 51,26 C53.203709,26 54.6636949,24.783345 55.4284767,22.8713907 C55.8596841,21.7933721 56,20.741003 56,20 L56,12 L54,12 L54,12 Z" id="Rectangle-15" fill="#05486B"></path>
                    <path d="M21.5,92.0857864 L31.2928932,82.2928932 L32,81.5857864 L32.7071068,82.2928932 L48.7071068,98.2928932 L47.2928932,99.7071068 L32.0166786,84.4308922 L22.9145853,93.5003717 L25.7071068,96.2928932 L24.2928932,97.7071068 L17.0179298,90.4321434 L6.70710678,100.707107 L5.29289322,99.2928932 L16.2928932,88.2928932 L17,87.5857864 L17.7071068,88.2928932 L21.5,92.0857864 Z M62.5,42.0857864 L72.2928932,32.2928932 L73,31.5857864 L73.7071068,32.2928932 L89.7071068,48.2928932 L88.2928932,49.7071068 L73.0166786,34.4308922 L63.9145853,43.5003717 L66.7071068,46.2928932 L65.2928932,47.7071068 L58.0179298,40.4321434 L50.7071068,47.7071068 L49.2928932,46.2928932 L57.2928932,38.2928932 L58,37.5857864 L58.7071068,38.2928932 L62.5,42.0857864 Z M62,35 C65.3137085,35 68,32.3137085 68,29 C68,25.6862915 65.3137085,23 62,23 C58.6862915,23 56,25.6862915 56,29 C56,32.3137085 58.6862915,35 62,35 Z M21,85 C24.3137085,85 27,82.3137085 27,79 C27,75.6862915 24.3137085,73 21,73 C17.6862915,73 15,75.6862915 15,79 C15,82.3137085 17.6862915,85 21,85 Z M62,33 C59.790861,33 58,31.209139 58,29 C58,26.790861 59.790861,25 62,25 C64.209139,25 66,26.790861 66,29 C66,31.209139 64.209139,33 62,33 Z M21,83 C18.790861,83 17,81.209139 17,79 C17,76.790861 18.790861,75 21,75 C23.209139,75 25,76.790861 25,79 C25,81.209139 23.209139,83 21,83 Z" id="Path" fill="#05486B"></path>
                </g>
            </g>
        </g>
    </g>
</svg>

<svg width="130" height="140" viewBox="0 0 130 140" xmlns="http://www.w3.org/2000/svg" xmlns:sketch="http://www.bohemiancoding.com/sketch/ns"><title>stand-for-files</title><desc>Created with Sketch.</desc><g sketch:type="MSLayerGroup" fill="none"><path d="M39 43v-27.004c0-6.072 4.925-10.996 10.994-10.996h42.416l.293.296 26.006 26.204.29.292v68.21700000000001c0 6.071-4.922 10.991-10.998 10.991h-41.002v13.003c0 6.074-4.924 10.997-10.999 10.997h-34.002c-6.074 0-10.999-4.925-10.999-10.997v-70.006c0-6.074 4.924-10.997 10.999-10.997h17.001z" id="Shape" fill="#222" sketch:type="MSShapeGroup"/><g sketch:type="MSShapeGroup"><path d="M41 17.001c0-5.523 4.481-10.001 9.999-10.001h40.996l25.006 25.204v66.796c0 5.523-4.47 10-9.994 10h-56.011c-5.52 0-9.994-4.481-9.994-10.001v-81.998z" fill="#fff"/><path d="M42 15.996v84.009c0 4.42 3.578 7.996 7.998 7.996h58.005c4.419 0 7.998-3.577 7.998-7.991v-67.805l.58 1.409-26.006-26.204 1.42.591h-42c-4.413 0-7.994 3.581-7.994 7.996zm-2 0c0-5.52 4.478-9.996 9.994-9.996h42l26.006 26.204v67.805c0 5.518-4.474 9.991-9.998 9.991h-58.005c-5.522 0-9.998-4.469-9.998-9.996v-84.009z" id="Shape" fill="#222"/><g><path d="M50 18.005c0-1.107.898-2.005 2.006-2.005h43.997l11.996 12v29.998c0 1.106-.888 2.002-1.996 2.002h-54.007c-1.103 0-1.996-.899-1.996-2.005v-39.99z" fill="#9169F3"/><path d="M50 18.005c0-1.107.898-2.005 2.006-2.005h43.997l11.996 12v29.998c0 1.106-.888 2.002-1.996 2.002h-54.007c-1.103 0-1.996-.899-1.996-2.005v-39.99zm2 39.99c0 .004 54.004.005 54.004.005l-.004-29-10.996-11h-42.997c-.004 0-.006 39.995-.006 39.995z" id="Shape" fill="#222"/></g><path d="M87.5 18h8.5l3 16h-8.137c-3.791 0-6.209-2.991-5.399-6.693l2.036-9.307z" id="Rectangle-5" fill="#6C46DC"/><path d="M90 8v8h-2l2-8z" fill="#E9E9EB"/><path d="M91 6l27 27h-17.004c-5.521 0-9.996-4.474-9.996-9.996v-17.004z" fill="#E9E9EB"/><path d="M90 6h2l26 26v2h-18.01c-5.517 0-9.99-4.468-9.99-9.99v-18.01zm2 18.01c0 4.416 3.575 7.99 7.99 7.99l15.262.08-23.191-23.191-.061 15.12z" id="Shape" fill="#222"/></g><g transform="translate(12 0)" sketch:type="MSShapeGroup"><rect fill="#E9E9EB" x="1" y="45" width="52" height="88" rx="10"/><path d="M0 123.22v-68.22l6-9h6s-6 2-6 8v69c0 8 6 9 6 9h-6l-6-8.78z" fill="#D3D3D8"/><path d="M2 53.997v70.006c0 4.415 3.582 7.997 7.999 7.997h34.002c4.418 0 7.999-3.58 7.999-7.997v-70.006c0-4.415-3.582-7.997-7.999-7.997h-34.002c-4.418 0-7.999 3.58-7.999 7.997zm-2 0c0-5.521 4.477-9.997 9.999-9.997h34.002c5.522 0 9.999 4.478 9.999 9.997v70.006c0 5.521-4.477 9.997-9.999 9.997h-34.002c-5.522 0-9.999-4.478-9.999-9.997v-70.006z" fill="#222"/><path fill="#9169F2" d="M2 55h50v62h-50z"/><path fill="#7C52E3" d="M2 56h4v60h-4z"/><path d="M1 54h52v2h-52v-2zm0 62h52v2h-52v-2zm18-66c0-.552.445-1 1.001-1h13.998c.553 0 1.001.444 1.001 1 0 .552-.445 1-1.001 1h-13.998c-.553 0-1.001-.444-1.001-1zm8 78c1.657 0 3-1.343 3-3s-1.343-3-3-3-3 1.343-3 3 1.343 3 3 3zm0 2c-2.761 0-5-2.239-5-5s2.239-5 5-5 5 2.239 5 5-2.239 5-5 5zm25-63c0-.552.45-1 1.002-1h41.997c.553 0 1.002.444 1.002 1 0 .552-.45 1-1.002 1h-41.997c-.553 0-1.002-.444-1.002-1zm0 7c0-.552.449-1 1.009-1h37.982c.557 0 1.009.444 1.009 1 0 .552-.449 1-1.009 1h-37.982c-.557 0-1.009-.444-1.009-1zm0 7c0-.552.45-1 1.002-1h41.997c.553 0 1.002.444 1.002 1 0 .552-.45 1-1.002 1h-41.997c-.553 0-1.002-.444-1.002-1zm0 7c0-.552.45-1 1.002-1h41.997c.553 0 1.002.444 1.002 1 0 .552-.45 1-1.002 1h-41.997c-.553 0-1.002-.444-1.002-1zm0 7c0-.552.455-1 1-1h15c.552 0 1 .444 1 1 0 .552-.455 1-1 1h-15c-.552 0-1-.444-1-1zm2-83v8c0 .115-.013.345-.054.649-.068.509-.19 1.017-.375 1.48-.485 1.213-1.275 1.871-2.572 1.871-1.296 0-2.086-.658-2.572-1.871-.185-.463-.307-.97-.375-1.48-.041-.304-.054-.534-.054-.649v-13c0-.144.017-.427.069-.8.087-.624.242-1.246.479-1.815.637-1.529 1.706-2.385 3.452-2.385 1.795 0 2.863.712 3.481 1.947.225.45.373.942.455 1.436.049.293.065.513.065.617h2c0-.766-.18-1.846-.731-2.947-.945-1.89-2.689-3.053-5.269-3.053-2.63 0-4.373 1.395-5.298 3.615-.529 1.27-.702 2.514-.702 3.385v13c0 .741.14 1.793.572 2.871.765 1.912 2.225 3.129 4.428 3.129 2.204 0 3.664-1.217 4.428-3.129.431-1.078.572-2.13.572-2.871v-8h-2z" fill="#222"/><path d="M21.5 92.086l9.793-9.793.707-.707.707.707 16 16-1.414 1.414-15.276-15.276-9.102 9.069 2.793 2.793-1.414 1.414-7.275-7.275-10.311 10.275-1.414-1.414 11-11 .707-.707.707.707 3.793 3.793zm41-50l9.793-9.793.707-.707.707.707 16 16-1.414 1.414-15.276-15.276-9.102 9.069 2.793 2.793-1.414 1.414-7.275-7.275-7.311 7.275-1.414-1.414 8-8 .707-.707.707.707 3.793 3.793zm-.5-7.086c3.314 0 6-2.686 6-6s-2.686-6-6-6-6 2.686-6 6 2.686 6 6 6zm-41 50c3.314 0 6-2.686 6-6s-2.686-6-6-6-6 2.686-6 6 2.686 6 6 6zm41-52c-2.209 0-4-1.791-4-4s1.791-4 4-4 4 1.791 4 4-1.791 4-4 4zm-41 50c-2.209 0-4-1.791-4-4s1.791-4 4-4 4 1.791 4 4-1.791 4-4 4z" fill="#222"/></g></g></svg>
